wp-content/themes/villarrealbegum/images/sp_icon_2.svg

<svg id="tower" enable-background="new 0 0 12.78 54.89" height="54.89" viewBox="0 0 12.78 54.89" width="12.78" xmlns="http://www.w3.org/2000/svg"><path d="m10.81 53.31h1.16l-2.51-33.19h2.33c.31 0 .56-.24.58-.55l.42-7.72c.01-.21-.09-.4-.26-.51l-5.56-3.65v-7.11c0-.32-.26-.58-.58-.58s-.58.26-.58.58v7.11l-5.55 3.65c-.17.11-.27.3-.26.51l.42 7.72c.02.31.27.55.58.55h2.33l-2.51 33.19h1.16l2.48-32.64h3.88zm.43-34.35h-9.7l-.11-2.06h9.92zm.17-3.21h-10.04l-.08-1.4h10.2zm.14-2.56h-10.32l-.06-1.07 5.22-3.43 5.22 3.43z" fill="#d3d6d6"/></svg>

<?xml version="1.0" encoding="utf-8"?>
<!-- Generator: Adobe Illustrator 24.0.1, SVG Export Plug-In . SVG Version: 6.00 Build 0)  -->
<svg version="1.1" id="tower" xmlns="http://www.w3.org/2000/svg" xmlns:xlink="http://www.w3.org/1999/xlink" x="0px" y="0px"
	 width="12.78px" height="54.89px" viewBox="0 0 12.78 54.89" style="enable-background:new 0 0 12.78 54.89;" xml:space="preserve"
	>
<style type="text/css">
	.st0{fill:#D3D6D6;}
</style>
<g>
	<path class="st0" d="M1.96,53.5C1.96,53.5,1.96,53.5,1.96,53.5L1.96,53.5z M10.82,53.49L10.82,53.49
		C10.82,53.5,10.82,53.49,10.82,53.49z M10.81,53.31h1.16L9.46,20.12h2.33c0.31,0,0.56-0.24,0.58-0.55l0.42-7.72
		c0.01-0.21-0.09-0.4-0.26-0.51l0,0L6.97,7.69V0.58C6.97,0.26,6.71,0,6.39,0S5.81,0.26,5.81,0.58v7.11l-5.55,3.65
		C0.09,11.45-0.01,11.64,0,11.85l0.42,7.72c0.02,0.31,0.27,0.55,0.58,0.55h2.33L0.82,53.31h1.16l2.48-32.64h3.88L10.81,53.31z
		 M11.24,18.96H1.54L1.43,16.9h9.92L11.24,18.96z M11.41,15.75H1.37l-0.08-1.4h10.2L11.41,15.75z M11.55,13.19H1.23l-0.06-1.07
		l5.22-3.43l5.22,3.43L11.55,13.19z"/>
</g>
</svg>
